packages/core/assets/Icons/filter_off.svg

<svg viewBox="0 0 20 20" fill="none" xmlns="http://www.w3.org/2000/svg">
<path d="M15.8958 18.25L1.72913 4.10413C1.56246 3.93746 1.47913 3.73954 1.47913 3.51038C1.47913 3.28121 1.56246 3.08329 1.72913 2.91663C1.89579 2.74996 2.09371 2.66663 2.32288 2.66663C2.55204 2.66663 2.74996 2.74996 2.91663 2.91663L17.0833 17.0833C17.25 17.25 17.3333 17.4444 17.3333 17.6666C17.3333 17.8888 17.25 18.0833 17.0833 18.25C16.9166 18.4166 16.7187 18.5 16.4895 18.5C16.2604 18.5 16.0625 18.4166 15.8958 18.25ZM13.5416 10.8333C13.3055 10.8333 13.1041 10.7534 12.9375 10.5937C12.7708 10.434 12.6875 10.2361 12.6875 9.99996C12.6875 9.77774 12.7673 9.58329 12.927 9.41663C13.0868 9.24996 13.2916 9.16663 13.5416 9.16663H14.1666C14.4027 9.16663 14.6007 9.24649 14.7604 9.40621C14.9201 9.56593 15 9.76385 15 9.99996C15 10.2361 14.9201 10.434 14.7604 10.5937C14.6007 10.7534 14.4027 10.8333 14.1666 10.8333H13.5416ZM9.37496 6.66663C9.13885 6.66663 8.93746 6.58677 8.77079 6.42704C8.60413 6.26732 8.52079 6.0694 8.52079 5.83329C8.52079 5.61107 8.60065 5.41663 8.76038 5.24996C8.9201 5.08329 9.12496 4.99996 9.37496 4.99996H16.6666C16.9027 4.99996 17.1007 5.07982 17.2604 5.23954C17.4201 5.39927 17.5 5.59718 17.5 5.83329C17.5 6.0694 17.4201 6.26732 17.2604 6.42704C17.1007 6.58677 16.9027 6.66663 16.6666 6.66663H9.37496ZM9.16663 15C8.93052 15 8.7326 14.9201 8.57288 14.7604C8.41315 14.6007 8.33329 14.4027 8.33329 14.1666C8.33329 13.9305 8.41315 13.7326 8.57288 13.5729C8.7326 13.4132 8.93052 13.3333 9.16663 13.3333H10.8333C11.0694 13.3333 11.2673 13.4132 11.427 13.5729C11.5868 13.7326 11.6666 13.9305 11.6666 14.1666C11.6666 14.4027 11.5868 14.6007 11.427 14.7604C11.2673 14.9201 11.0694 15 10.8333 15H9.16663ZM5.83329 10.8333C5.59718 10.8333 5.39927 10.7534 5.23954 10.5937C5.07982 10.434 4.99996 10.2361 4.99996 9.99996C4.99996 9.76385 5.07982 9.56593 5.23954 9.40621C5.39927 9.24649 5.59718 9.16663 5.83329 9.16663H8.45829V10.8333H5.83329ZM3.33329 6.66663C3.09718 6.66663 2.89926 6.58677 2.73954 6.42704C2.57982 6.26732 2.49996 6.0694 2.49996 5.83329C2.49996 5.59718 2.57982 5.39927 2.73954 5.23954C2.89926 5.07982 3.09718 4.99996 3.33329 4.99996H4.29163V6.66663H3.33329Z" fill="currentColor"/>
</svg>

<svg xmlns="http://www.w3.org/2000/svg" width="20" height="20" fill="none" viewBox="0 0 20 20">
  <path fill="#201F1F" d="M15.896 18.25 1.729 4.104a.811.811 0 0 1-.25-.594c0-.229.083-.427.25-.593a.811.811 0 0 1 .594-.25c.229 0 .427.083.594.25l14.166 14.166a.8.8 0 0 1 .25.584.8.8 0 0 1-.25.583.812.812 0 0 1-.593.25.811.811 0 0 1-.594-.25Zm-2.354-7.417a.841.841 0 0 1-.604-.24.79.79 0 0 1-.25-.593c0-.222.08-.417.239-.583a.814.814 0 0 1 .615-.25h.625c.236 0 .434.08.593.24.16.159.24.357.24.593s-.08.434-.24.594a.807.807 0 0 1-.593.24h-.625ZM9.375 6.667a.841.841 0 0 1-.604-.24.79.79 0 0 1-.25-.594c0-.222.08-.416.24-.583A.814.814 0 0 1 9.374 5h7.292c.236 0 .434.08.593.24.16.16.24.357.24.593s-.08.434-.24.594a.806.806 0 0 1-.593.24H9.375ZM9.167 15a.806.806 0 0 1-.594-.24.806.806 0 0 1-.24-.593c0-.236.08-.434.24-.594.16-.16.358-.24.594-.24h1.666c.236 0 .434.08.594.24.16.16.24.357.24.594 0 .236-.08.434-.24.593a.806.806 0 0 1-.594.24H9.167Zm-3.334-4.167a.806.806 0 0 1-.593-.24A.806.806 0 0 1 5 10c0-.236.08-.434.24-.594.16-.16.357-.24.593-.24h2.625v1.667H5.833Zm-2.5-4.166a.806.806 0 0 1-.593-.24.806.806 0 0 1-.24-.594c0-.236.08-.434.24-.593.16-.16.357-.24.593-.24h.959v1.667h-.959Z"/>
</svg>
